X:1
T: The Honeymoon Reel
C:
R:Reel
Q: 232
K:G
M:4/4
L:1/8
|:dc|BG AF DG G2|((3Bcd) ef ge dc|BG G2 DG G2|Be dB A2 dc|
BG AF DG G2|Bd ef g3a|bg af gf ed|((3efg) dB G2 Bd|
e2 ef ed BA|((3Bcd) ef ge dc|BG G2 DG G2|Be dB A2 Bd|
ed ef ed BA|((3Bcd) ef g3a|bg af gf ed|((3efg) dB G2:|
